X:80
T:Gillespie's Hornpipe
M:4/4
L:1/8
Z:abc by Bruce Osborne - bosborne@kos.net
K:A
ed|cBAc BAGB|Aaga fecA|GBEB ABcd|edcd B2 ed|!
cBAc BAGB|Aaga fecA|GABc defg|a2 A2 A2:|!
|:cd|eaga eaga|eaga fecA|GABc dcde|fedc B2 cd|!
eaga eaga|eaga fecA|GABc defg|a2 A2 A2:|!
